src/WeatherTwentyOne/Resources/Images/fluent_weather_fog_20_filled.svg

<svg width="40" height="40" viewBox="0 0 40 40" fill="none" xmlns="http://www.w3.org/2000/svg">
<path d="M12.7969 30H26.5781C26.8241 29.9995 27.0614 30.0927 27.2431 30.261C27.4249 30.4294 27.5381 30.6608 27.5603 30.9096C27.5825 31.1585 27.5122 31.4068 27.3632 31.6057C27.2142 31.8045 26.9974 31.9395 26.7553 31.984L26.5781 32H12.7969C12.5509 32.0005 12.3136 31.9073 12.1319 31.739C11.9501 31.5706 11.8369 31.3392 11.8147 31.0904C11.7925 30.8415 11.8628 30.5932 12.0118 30.3943C12.1608 30.1955 12.3776 30.0605 12.6197 30.016L12.7969 30ZM8.86725 26H30.5078C31.0551 26 31.5 26.448 31.5 27C31.5 27.49 31.1496 27.9 30.6869 27.984L30.5097 28H8.86528C8.6035 28.0005 8.35221 27.8955 8.16656 27.7081C7.9809 27.5206 7.87604 27.2659 7.875 27C7.875 26.51 8.22544 26.1 8.68809 26.016L8.86528 26H8.86725ZM19.6875 6C24.5405 6 27.2928 9.148 27.6924 12.948H27.8145C30.9369 12.948 33.4688 15.422 33.4688 18.474C33.4688 21.526 30.9369 24 27.8145 24H11.5605C8.43806 24 5.90625 21.526 5.90625 18.474C5.90625 15.534 8.253 13.132 11.216 12.958L11.6826 12.948C12.0862 9.122 14.8345 6 19.6875 6Z" fill="url(#paint0_linear)"/>
<defs>
<linearGradient id="paint0_linear" x1="10.6129" y1="10.7006" x2="25.6583" y2="25.652" gradientUnits="userSpaceOnUse">
<stop offset="0.10243" stop-color="#28C2D1"/>
<stop offset="0.925347" stop-color="#4931DE"/>
</linearGradient>
</defs>
</svg>

<svg width="40" height="40" fill="none" xmlns="http://www.w3.org/2000/svg">
    <path
        d="M12.797 30h13.781c.246 0 .483.093.665.261a1.012 1.012 0 01.12 1.345.982.982 0 01-.608.378l-.177.016H12.797a.976.976 0 01-.665-.261 1.012 1.012 0 01-.12-1.345.982.982 0 01.608-.378l.177-.016zm-3.93-4h21.64c.548 0 .993.448.993 1 0 .49-.35.9-.813.984L30.51 28H8.865a.98.98 0 01-.698-.292A1.012 1.012 0 017.875 27c0-.49.35-.9.813-.984L8.865 26h.002zm10.82-20c4.854 0 7.606 3.148 8.005 6.948h.122c3.123 0 5.655 2.474 5.655 5.526 0 3.052-2.532 5.526-5.655 5.526H11.561c-3.123 0-5.655-2.474-5.655-5.526 0-2.94 2.347-5.342 5.31-5.516l.467-.01C12.086 9.122 14.835 6 19.688 6z"
        fill="url(#prefix__paint0_linear)" />
    <defs>
        <linearGradient id="prefix__paint0_linear" x1="10.613" y1="10.701" x2="25.658" y2="25.652"
            gradientUnits="userSpaceOnUse">
            <stop offset=".102" stop-color="#28C2D1" />
            <stop offset=".925" stop-color="#4931DE" />
        </linearGradient>
    </defs>
</svg>
